!!!COM: Grieg, Edvard
!!!CDT: 1843/06/15/-1907/09/04/
!!!OPR: Lyric Pieces
!!!OPS: Op. 43
!!!ONM: No. 1
!!!OTL@@NO: Sommerfugl
!!!OTL@EN: Butterfly
!!!OTL@DE: Schmetterling
!!!OTL@FR: Papillon
!!!ODT: 1886///
!!!OMD: Allegro grazioso
**kern	**kern	**dynam
*staff2	*staff1	*staff1/2
*LH	*RH	*
*clefF4	*clefG2	*clefG2
*>[A,A,B]	*>[A,A,B]	*>[A,A,B]
*>norep[A,B]	*>norep[A,B]	*>norep[A,B]
*>A	*>A	*>A
*k[f#c#g#]	*k[f#c#g#]	*k[f#c#g#]
*A:	*A:	*A:
*met(C)	*met(C)	*met(C)
*M4/4	*M4/4	*M4/4
*MM132	*MM132	*MM132
=1-	=1-	=1-
16r	(8.ff#^\L	p
(16D\LL	.	.
16G#\	.	.
16B\JJ	16g#\Jk	.
8f#'\)	16a/LL	.
.	16a#/	.
8r	16b/	.
.	16b#/JJ	.
4r	16cc#\LL	.
.	16dd\	.
.	16dd#\	.
.	16ee\JJ	.
16r	16aan\LL	.
(16C#\LL	16ee\	.
16A\	16cc#\	.
16e\JJ)	16an\JJ)	.
=2	=2	=2
16r	(8.f##^\L	.
(16AA#\LL	.	.
16E\	.	.
16c#\JJ)	16ee\Jk	.
16r	8.g#^\L	.
(16BB\LL	.	.
16E\	.	.
16d\JJ)	16ee\Jk	.
16r	8.f##^\L	.
(16AA#\LL	.	.
16E\	.	.
16c#\JJ)	16ee\Jk	.
16r	8.g#^\L	.
(16BB\LL	.	.
16E\	.	.
16d\JJ)	16ee#\Jk)	.
=3	=3	=3
16r	(8.ff#^\L	.
(16D\LL	.	.
16G#\	.	.
16B\JJ	16g#\Jk	.
8f#'\)	16a/LL	.
.	16a#/	.
8r	16b/	.
.	16b#/JJ	.
4r	16cc#\LL	.
.	16dd\	.
.	16dd#\	.
.	16ee\JJ	.
16r	16aan\LL	.
(16C#\LL	16ee\	.
16A\	16cc#\	.
16e\JJ)	16an\JJ)	.
*clefG2	*	*
=4	=4	=4
16r	(8.ccc#^\L	<
(16A/LL	.	.
16d#/	.	.
16f#/JJ	16dd#\Jk	.
8cc#'\)	16ee\LL	.
.	16ee#\	.
8r	16ff#\	.
.	16ff##\JJ	.
4r	16gg#\LL	.
.	16aa\	.
.	16aa#\	.
.	16bb\JJ	.
16r	16eeen\LL	.
(16G#/LL	16bb\	.
16e/	16gg#\	.
16b/JJ)	16een\JJ)	.
*clefF4	*	*
=5	=5	=5
16r	(8.b\L	f
(16BB\LL	.	.
16G#\	.	.
16e\JJ)	16gg#\Jk	.
4r	8.g#\L	.
.	16ee\Jk	>
16r	8.e/L	.
(16BB\LL	.	.
16Gn\	.	.
16e\JJ)	16cc#/Jk	.
4r	8.c#/L	.
.	16a#/Jk	.
=6	=6	=6
16r	8.cn/L	.
(16BB\LL	.	.
16F#\	.	.
16d#\JJ)	16an/Jk	.
4r	8.A/L	.
.	16f#/Jk	.
16r	8.G#/L	p
(16EE/LL	.	.
16BB/JJ)	.	.
16r	16e/Jk)	.
4EEE'/	4r	.
=7:|!	=7:|!	=7:|!
*>B	*>B	*>B
16r	(8.gn^/L	.
(16BB\LL	.	.
16Gn\	.	.
16dn\JJ)	16b/Jk	.
4r	16dd^\LL	.
.	16ggn\	.
.	16cc#^\	.
.	16dd\ 16gg\JJ	.
2r	16b^\LL	<
.	16dd\ 16gg\	.
.	16a^\	.
.	16b\ 16dd\JJ	.
.	16gn^\LL	.
.	16b\ 16dd\	.
.	16f#^\	.
.	16b\ 16dd\JJ)	.
=8	=8	=8
16r	(8.e#^/L	.
(16C#\LL	.	.
16B\JJ)	.	.
16r	16g#/) 16cc#/Jk	.
16r	(8.f#^/L	.
(16C#\LL	.	.
16c#\JJ)	.	.
16r	16a/) 16cc#/Jk	.
16r	(8.d#^/L	.
(16C#\LL	.	.
16A\JJ)	.	.
16r	16f#/) 16cc#/Jk	.
16r	(8.e#^/L	.
(16C#\LL	.	.
16B\JJ)	.	.
16r	16g#/) 16cc#/Jk	.
=9	=9	=9
16r	(8.c#^/L	.
(16FF#/LL	.	.
16C#/	.	.
16A/JJ)	16f#/ 16a/ 16cc#/Jk	.
4r	16dn/LL	.
.	16f#/ 16a/ 16cc#/	.
.	16en/	.
.	16f#/) 16a/ 16cc#/JJ	.
16r	(8.c#^/L	.
(16FF#/LL	.	.
16C#/	.	.
16B/JJ)	16e#/) 16a/ 16cc#/Jk	.
16r	(8.c#^/L	.
(16FF#/LL	.	.
16C#/	.	.
16B/JJ)	16e#/) 16a/ 16cc#/Jk	.
=10	=10	=10
*	*^	*
16r	4r	1c#^	.
16FF#/LL	.	.	.
16C#/	.	.	.
16A/JJ	.	.	.
4r	16f#\LL	.	.
.	16g#\	.	.
.	16a\	.	.
.	16cc#\JJ	.	.
16r	4r	.	.
16F#/LL	.	.	.
16c#/	.	.	.
16a/JJ	.	.	.
4r	16ff#\LL	.	.
.	16gg#\	.	.
.	16aa\	.	.
.	16ccc#\JJ	.	.
*	*v	*v	*
=11	=11	=11
16r	(8.ccn^\L	.
(16E\LL	.	.
16cn\	.	.
16gn\JJ)	16ee\Jk	.
4r	16ggn^\LL	.
.	16cccn\	.
.	16ff#^\	.
.	16gg\ 16ccc\JJ	.
2r	16ee^\LL	<
.	16gg\ 16ccc\	.
.	16dd^\	.
.	16ee\ 16gg\JJ	.
.	16cc^\LL	.
.	16ee\ 16gg\	.
.	16b^\	.
.	16ee\ 16gg\JJ)	.
=12	=12	=12
16r	(8.a#^\L	.
(16F#\LL	.	.
16e\JJ)	.	.
16r	16cc#\ 16ff#\Jk)	.
16r	(8.b^\L	.
(16F#\LL	.	.
16f#\JJ)	.	.
16r	16dd\ 16ff#\Jk)	.
16r	(8.g#^\L	.
(16F#\LL	.	.
16d\JJ)	.	.
16r	16b\ 16ff#\Jk)	.
16r	(8.a#^\L	.
(16F#\LL	.	.
16e\JJ)	.	.
16r	16cc#\ 16ff#\Jk)	.
=13	=13	=13
16r	(8.f#^\L	.
(16BB\LL	.	.
16F#\	.	.
16d\JJ)	16b\ 16dd\ 16ff#\Jk	.
4r	16gn\LL	.
.	16b\ 16dd\ 16ff#\	.
.	16an\	.
.	16b\ 16dd\ 16ff#\JJ)	.
16r	(8.f#^\L	.
(16BB\LL	.	.
16F#\	.	.
16e\JJ)	16a#\ 16dd\ 16ff#\Jk)	.
16r	(8.f#^\L	.
(16BB\LL	.	.
16F#\	.	.
16e\JJ)	16a#\ 16dd\ 16ff#\Jk)	.
=14	=14	=14
16r	(8.f#^\L	pp
(16BB\LL	.	.
16F#\	.	.
16d#\JJ)	16b\ 16dd#\ 16ff#\Jk	.
4r	16g#\LL	.
.	16b\ 16dd#\ 16ff#\	.
.	16a#\	.
.	16b\ 16dd#\ 16ff#\JJ)	.
16r	(8.f#^\L	.
(16BB\LL	.	.
16F#\	.	.
16e\JJ)	16a#\ 16dd#\ 16ff#\Jk)	.
16r	(8.f#^\L	.
(16BB\LL	.	.
16F#\	.	.
16e\JJ)	16a#\ 16dd#\ 16ff#\Jk)	.
=15	=15	=15
*	*^	*
16r	4r	2f#^\	.
16BB/LL	.	.	.
16F#/	.	.	.
16d#/JJ	.	.	.
4r	16b\LL	.	.
.	16cc#\	.	.
.	16dd#\	.	.
.	16ff#\JJ	.	.
16r	4r	2f#^\	.
16BB/LL	.	.	.
16F#/	.	.	.
16d#/JJ	.	.	.
4r	16b\LL	.	<
.	16cc#\	.	.
.	16dd#\	.	.
.	16ff#\JJ	.	.
=16	=16	=16	=16
16r	2ff#^/	4r	.
16BB/LL	.	.	.
16F#/	.	.	.
16dn/JJ	.	.	.
4r	.	16ddn\LL	>
.	.	16cc#\	.
.	.	16b\	.
.	.	16f#\JJ	.
16r	2ff#^/	4r	.
16BB/LL	.	.	.
16Gn/	.	.	.
16d/JJ	.	.	.
4r	.	16dd\LL	.
.	.	16cc#\	.
.	.	16b\	.
.	.	16gn\JJ	.
*	*v	*v	*
=17	=17	=17
(16DD/ 16D/LL	(8.ff#^\L	.
16G#/	.	.
16B/	.	.
16f#/JJ)	16g#\Jk	.
4r	16a/LL	.
.	16a#/	.
.	16b/	.
.	16b#/JJ	.
4r	16cc#\LL	.
.	16dd\	.
.	16dd#\	.
.	16ee\JJ	.
16r	16aan\LL	.
(16C#\LL	16ee\	.
16A\	16cc#\	.
16e\JJ)	16an\JJ)	.
=18	=18	=18
16r	(8.f##^\L	.
(16AA#\LL	.	.
16E\	.	.
16c#\JJ)	16ee\Jk	.
16r	8.g#^\L	.
(16BB\LL	.	.
16E\	.	.
16d\JJ)	16ee\Jk	.
16r	8.f##^\L	.
(16AA#\LL	.	.
16E\	.	.
16c#\JJ)	16ee\Jk	.
16r	8.g#^\L	.
(16BB\LL	.	.
16E\	.	.
16d\JJ)	16ee#\Jk)	.
=19	=19	=19
16r	(8.ff#^\L	<
(16D\LL	.	.
16G#\	.	.
16B\JJ	16g#\Jk	.
8f#'\)	16a/LL	.
.	16a#/	.
8r	16b/	.
.	16b#/JJ	.
4r	16cc#\LL	.
.	16dd\	.
.	16dd#\	.
.	16ee\JJ	.
16r	16aan\LL	.
(16C#\LL	16ee\	.
16A\	16cc#\)	.
16e\JJ)	16an\JJ	.
=20	=20	=20
16r	(8.ccc#^\L	.
*clefG2	*	*
(16A/LL	.	.
16d#/	.	.
16f#/JJ	16dd#\Jk	.
8cc#'\)	16ee\LL	.
.	16ee#\	.
8r	16ff#\	.
.	16ff##\JJ	.
4r	16gg#\LL	.
.	16aa\	.
.	16aa#\	.
.	16bb\JJ	.
16r	16eeen\LL	.
(16G#/LL	16bb\	.
16e/	16gg#\	.
16b/JJ)	16een\JJ)	.
=21	=21	=21
16r	(8.fff#^\L	f
(16dn/LL	.	.
16g#/	.	.
16b/JJ	16gg#\Jk	.
8ff#'\)	16aa\LL	.
.	16aa#\	.
8r	16bb\	.
.	16bb#\JJ	.
4r	16ccc#\LL	.
.	16ddd\	.
.	16ddd#\	.
.	16eee\JJ	.
16r	16aaan\LL	.
(16c#/LL	16eee\	.
16a/	16ccc#\	.
16ee/JJ)	16aan\JJ)	.
*clefF4	*	*
=22	=22	=22
16r	(8.ee^\L	.
(16E\LL	.	.
16c#\	.	.
16a\JJ)	16ccc#\Jk	.
4r	8.cc#^\L	.
.	16aa\Jk	.
16r	8.a^\L	>
(16E\LL	.	.
16cn\	.	.
16a\JJ)	16ff#\Jk	.
4r	8.f#^/L	.
.	16dd#/Jk	.
=23	=23	=23
16r	8.fn^/L	.
(16E\LL	.	.
16B\	.	.
16g#\JJ)	16ddn/Jk	.
4r	8.d^/L	.
.	16b/Jk	.
16r	8.c#^/L	p
(16AA/LL	.	.
16E/JJ)	.	.
16r	16a/Jk)	.
4AAA'/	4r	.
=24	=24	=24
16r	(8.gn/L	.
(16BB\LL	.	.
16Gn\	.	.
16d\JJ)	16b/Jk	.
4r	16dd^\LL	.
.	16ggn\	.
.	16cc#^\	.
.	16dd\ 16gg\JJ	.
2r	16b^\LL	.
.	16dd\ 16gg\	.
.	16a^\	.
.	16b\ 16dd\JJ	.
.	16g^\LL	.
.	16b\ 16dd\	.
.	16f#^\	.
.	16b\ 16dd\JJ)	.
=25	=25	=25
16r	(8.e#^/L	.
(16C#\LL	.	.
16B\JJ)	.	.
16r	16g#/) 16cc#/Jk	.
16r	(8.f#^/L	.
(16C#\LL	.	.
16c#\JJ)	.	.
16r	16a/) 16cc#/Jk	.
16r	(8.d#^/L	.
(16C#\LL	.	.
16A\JJ)	.	.
16r	16f#/) 16cc#/Jk	.
16r	(8.e#^/L	.
(16C#\LL	.	.
16B\JJ)	.	.
16r	16g#/) 16cc#/Jk	.
=26	=26	=26
16r	(8.c#^/L	.
(16FF#/LL	.	.
16C#/	.	.
16A/JJ)	16f#/ 16a/ 16cc#/Jk	.
4r	16dn/LL	.
.	16f#/ 16a/ 16cc#/	.
.	16en/	.
.	16f#/) 16a/ 16cc#/JJ	.
16r	(8.c#^/L	.
(16FF#/LL	.	.
16C#/	.	.
16B/JJ)	16e#/) 16a/ 16cc#/Jk	.
16r	(8.c#^/L	<
(16FF#/LL	.	.
16C#/	.	.
16B/JJ)	16e#/) 16a/ 16cc#/Jk	.
=27	=27	=27
*	*^	*
16r	4r	1c#^	.
16FF#/LL	.	.	.
16C#/	.	.	.
16A/JJ	.	.	.
4r	16f#\LL	.	.
.	16g#\	.	.
.	16a\	.	.
.	16cc#\JJ	.	.
16r	4r	.	.
16F#/LL	.	.	.
16c#/	.	.	.
16a/JJ	.	.	.
4r	16ff#\LL	.	.
.	16gg#\	.	.
.	16aa\	.	.
.	16ccc#\JJ	.	.
*	*v	*v	*
=28	=28	=28
16r	(8.ccn^\L	.
(16E\LL	.	.
16cn\	.	.
16gn\JJ)	16ee\Jk	.
4r	16ggn\LL	.
.	16cccn\	.
.	16ff#\	.
.	16gg\ 16ccc\JJ	.
2r	16ee\LL	<
.	16gg\ 16ccc\	.
.	16dd\	.
.	16ee\ 16gg\JJ	.
.	16cc\LL	.
.	16ee\ 16gg\	.
.	16b\	.
.	16ee\ 16gg\JJ)	.
=29	=29	=29
16r	(8.a#^\L	.
(16F#\LL	.	.
16e\JJ)	.	.
16r	16cc#\ 16ff#\Jk)	.
16r	(8.b^\L	.
(16F#\LL	.	.
16f#\JJ)	.	.
16r	16dd\ 16ff#\Jk)	.
16r	(8.g#^\L	.
(16F#\LL	.	.
16d\JJ)	.	.
16r	16b\ 16ff#\Jk)	.
16r	(8.a#^\L	.
(16F#\LL	.	.
16e\JJ)	.	.
16r	16cc#\ 16ff#\Jk)	.
=30	=30	=30
16r	(8.f#^\L	.
(16BB\LL	.	.
16F#\	.	.
16d\JJ)	16b\ 16dd\ 16ff#\Jk	.
4r	16gn\LL	.
.	16b\ 16dd\ 16ff#\	.
.	16an\	.
.	16b\ 16dd\ 16ff#\JJ)	.
16r	(8.f#^\L	.
(16BB\LL	.	.
16F#\	.	.
16e\JJ)	16a#\ 16dd\ 16ff#\Jk)	.
16r	(8.f#^\L	.
(16BB\LL	.	.
16F#\	.	.
16e\JJ)	16a#\ 16dd\ 16ff#\Jk)	.
=31	=31	=31
16r	(8.f#^\L	pp
(16BB\LL	.	.
16F#\	.	.
16d#\JJ)	16b\ 16dd#\ 16ff#\Jk	.
4r	16g#\LL	.
.	16b\ 16dd#\ 16ff#\	.
.	16a#\	.
.	16b\ 16dd#\ 16ff#\JJ)	.
16r	(8.f#^\L	.
(16BB\LL	.	.
16F#\	.	.
16e\JJ)	16a#\ 16dd#\ 16ff#\Jk)	.
16r	(8.f#^\L	.
(16BB\LL	.	.
16F#\	.	.
16e\JJ)	16a#\ 16dd#\ 16ff#\Jk)	.
=32	=32	=32
*	*^	*
16r	4r	2f#^\	.
16BB/LL	.	.	.
16F#/	.	.	.
16d#/JJ	.	.	.
4r	16b\LL	.	.
.	16cc#\	.	.
.	16dd#\	.	.
.	16ff#\JJ	.	.
16r	4r	2f#^\	.
16BB/LL	.	.	.
16F#/	.	.	.
16d#/JJ	.	.	.
4r	16b\LL	.	.
.	16cc#\	.	.
.	16dd#\	.	.
.	16ff#\JJ	.	.
=33	=33	=33	=33
16r	2ff#^/	4r	.
16BB/LL	.	.	.
16F#/	.	.	.
16dn/JJ	.	.	.
4r	.	16ddn\LL	.
.	.	16cc#\	.
.	.	16b\	.
.	.	16f#\JJ	.
16r	2ff#^/	4r	.
16BB/LL	.	.	.
16Gn/	.	.	.
16d/JJ	.	.	.
4r	.	16dd\LL	.
.	.	16cc#\	.
.	.	16b\	.
.	.	16gn\JJ	.
*	*v	*v	*
=34	=34	=34
(16DD/ 16D/LL	(8.ff#^\L	.
16G#/	.	.
16B/	.	.
16f#/JJ)	16g#\Jk	.
4r	16a/LL	.
.	16a#/	.
.	16b/	.
.	16b#/JJ	.
4r	16cc#\LL	.
.	16dd\	.
.	16dd#\	.
.	16ee\JJ	.
16r	16aan\LL	.
(16C#\LL	16ee\	.
16A\	16cc#\	.
16e\JJ)	16an\JJ)	.
=35	=35	=35
16r	(8.f##^\L	.
(16AA#\LL	.	.
16E\	.	.
16c#\JJ)	16ee\Jk	.
16r	8.g#^\L	.
(16BB\LL	.	.
16E\	.	.
16d\JJ)	16ee\Jk	.
16r	8.f##^\L	.
(16AA#\LL	.	.
16E\	.	.
16c#\JJ)	16ee\Jk	.
16r	8.g#^\L	.
(16BB\LL	.	.
16E\	.	.
16d\JJ)	16ee#\Jk)	.
=36	=36	=36
16r	(8.ff#^\L	.
(16D\LL	.	.
16G#\	.	.
16B\JJ	16g#\Jk	<
8f#\)	16a/LL	.
.	16a#/	.
8r	16b/	.
.	16b#/JJ	.
4r	16cc#\LL	.
.	16dd\	.
.	16dd#\	.
.	16ee\JJ	.
16r	16aan\LL	.
(16C#\LL	16ee\	.
16A\	16cc#\	.
16e\JJ)	16an\JJ)	.
=37	=37	=37
16r	(8.ccc#^\L	.
*clefG2	*	*
(16A/LL	.	.
16d#/	.	.
16f#/JJ	16dd#\Jk	.
8cc#'\)	16ee\LL	.
.	16ee#\	.
8r	16ff#\	.
.	16ff##\JJ	.
4r	16gg#\LL	.
.	16aa\	.
.	16aa#\	.
.	16bb\JJ	.
16r	16eeen\LL	.
(16G#/LL	16bb\	.
16e/	16gg#\	.
16b/JJ)	16een\JJ)	.
=38	=38	=38
16r	(8.fff#^\L	f
(16dn/LL	.	.
16g#/	.	.
16b/JJ	16gg#\Jk	.
8ff#'\)	16aa\LL	.
.	16aa#\	.
8r	16bb\	.
.	16bb#\JJ	.
4r	16ccc#\LL	<
.	16ddd\	.
.	16ddd#\	.
.	16eee\JJ	.
16r	16aaan\LL	.
(16c#/LL	16eee\	.
16a/	16ccc#\	.
16ee/JJ)	16aan\JJ)	.
*clefF4	*	*
=39	=39	=39
16r	(8.ee^\L	ff
(16E\LL	.	.
16c#\	.	.
16a\JJ)	16ccc#\Jk	.
4r	8.cc#^\L	.
.	16aa\Jk	.
16r	8.a^\L	.
(16E\LL	.	.
16cn\	.	.
16a\JJ)	16ff#\Jk	.
4r	8.f#^/L	.
.	16dd#/Jk	.
=40	=40	=40
16r	8.fn^/L	.
(16E\LL	.	.
16B\	.	.
16g#\JJ)	16ddn/Jk	.
4r	8.d^/L	.
.	16b/Jk)	.
2r	2r	.
=41	=41	=41
16r	(8.e^/L	>
(16EE/LL	.	.
16C#/	.	.
16A/JJ)	16cc#/Jk	.
4r	8.c#^/L	.
.	16a/Jk	.
16r	8.A^/L	.
(16EE/LL	.	.
16Cn/	.	.
16A/JJ)	16f#/Jk	.
*	*clefF4	*
4r	8.F#^\L	.
.	16d#\Jk	.
=42	=42	=42
16r	8.Fn^\L	p
(16EE/LL	.	.
16BB/	.	.
16G#/JJ)	16dn\Jk	.
4r	8.D^\L	.
.	16B\Jk	.
16r	8.C#^\L	pp
(16AAA/LL	.	.
16EE/JJ)	.	.
16r	16A\Jk)	.
4AAAA'/	4r	.
==	==	==
*-	*-	*-
!!!ENC: Craig Stuart Sapp
!!!END: 2008/02/27/
